X:227
%%topspace -50
T: Issodun
R: reel
M: 4/4
L: 1/8
K: Amaj
"A(D)"efge a2gf | eagf edcd | efge a2 gf | eagf edcA | "E"BAGB "A"A4 :|
"A"c2 c2 "Bm"B3 c | BABc dcBA | c2 c2 B3 c |\
M:6/4 
"Bm"BAGB"D"AE EAEFAB |\
M:4/4
 "D"c2c2 "E"B3c | BABc dcBA| c2c2 b3c|\
M:6/4
"Em"BAGB"D"AE EAEFAB |\
M:4/4
z c2 c "E"B3c| BABc dcBA| c2c2 B3c| "E"BAGB "A"A4 |]

